X: 374
T: Moll in the Wad   #2
R: single jig
%S: s:3 b:14(6+4+4)
B: Francis O'Neill: "The Dance Music of Ireland" (1907) #374
Z: Transcribed by Frank Nordberg - http://www.musicaviva.com
F: http://www.musicaviva.com/abc/tunes/ireland/oneill-1001/0374/oneill-1001-0374-1.abc
M: 6/8
L: 1/8
K: Dmix
% = = = = = = = = = =
"^A"\
|: c | BAB G2F | E2F G2c | BAB [1,3 G2B | AFD D2c :|[2,4 dcB | AFD D2 :|
"^B"\
|: c | BGB d2c | BGB d2c | BGB dcB | AFD D2 ||
|| c | BGB d2c | BGB def | gfe dcB | AFD D2 :|
